Newaita-dark/.DP/32/telegram-attention-panel.svg

<svg xmlns="http://www.w3.org/2000/svg" xmlns:xlink="http://www.w3.org/1999/xlink" width="32px" height="32px" viewBox="0 0 32 32" version="1.1">
<g id="surface1">
<path style=" stroke:none;fill-rule:nonzero;fill:rgb(93.333334%,93.333334%,93.333334%);fill-opacity:1;" d="M 26 4.671875 C 25.828125 4.667969 25.652344 4.699219 25.488281 4.765625 L 4.90625 12.902344 C 3.714844 13.375 3.789062 15.082031 5.011719 15.449219 L 13.894531 18.113281 L 16.554688 26.988281 C 16.921875 28.214844 18.628906 28.285156 19.097656 27.097656 L 19.457031 26.199219 C 18.871094 25.421875 18.523438 24.453125 18.523438 23.402344 C 18.523438 21.105469 20.175781 19.210938 22.363281 18.839844 L 27.238281 6.515625 C 27.441406 5.996094 27.308594 5.410156 26.898438 5.03125 C 26.648438 4.800781 26.328125 4.675781 26 4.671875 Z M 26 4.671875 "/>
<path style=" stroke:none;fill-rule:nonzero;fill:rgb(93.333334%,31.764707%,30.980393%);fill-opacity:1;" d="M 23.152344 20.097656 C 24.980469 20.097656 26.460938 21.574219 26.460938 23.402344 C 26.460938 25.230469 24.980469 26.710938 23.152344 26.710938 C 21.324219 26.710938 19.847656 25.230469 19.847656 23.402344 C 19.847656 21.574219 21.324219 20.097656 23.152344 20.097656 Z M 23.152344 20.097656 "/>
</g>
</svg>

<svg xmlns="http://www.w3.org/2000/svg" width="32pt" height="32pt" viewBox="0 0 32 32"><path d="M26 4.672c-.172 0-.348.031-.512.094L4.906 12.902c-1.187.473-1.117 2.176.11 2.547l8.875 2.66 2.664 8.88c.367 1.226 2.074 1.296 2.543.109l.359-.903a4.61 4.61 0 0 1-.934-2.793 4.614 4.614 0 0 1 3.84-4.562l4.871-12.324A1.347 1.347 0 0 0 26 4.672zm0 0" fill="#bdbdbd"/><path d="M23.152 20.094a3.308 3.308 0 1 1 .002 6.62 3.308 3.308 0 0 1-.002-6.62zm0 0" fill="#ef5350"/></svg>
